X:1
T: Frank T. Robertson
S: Mike McGeary <mmcgeary@erols.com> scots-l 2001-8-24
M: 2/4
L: 1/8
K: D
(FE) | "D"D2 FA d2 cd | fedc dAFA | "Em"B2 ef (gf)ed | "A7"(c2A2) (AG)FE |
"D"D2 FA d2 cd | fedc "G"Bd"D"Ad | "Em"B2 ed "A"cAce | "D"f2d2 d2 :|
g | f2 (cd) ABcd | (fa)ag (fe)dc | "Em"B2 ef (gf)ed | (c2A2)(A2g2) |
"D"f2 cd A2 Bc | "Am"(dc)dc (BA)GF | "G"G2 Bd "A7"(cd)eg | "D"f2d2 d2 :|
